app/assets/img/main/intro-subttl02.svg

<svg fill="none" height="25" viewBox="0 0 144 25" width="144" xmlns="http://www.w3.org/2000/svg"><path d="m6.292 20.208c-.64133 0-1.209-.091-1.703-.273-.48533-.1907-.897-.455-1.235-.793-.32933-.3467-.58067-.7627-.754-1.248s-.26-1.027-.26-1.625v-6.968h-1.144c-.208 0-.385667-.065-.533-.195-.147333-.13867-.221-.338-.221-.598v-1.573l2.145-.416.793-3.289c.104-.416.39867-.624.884-.624h2.106v3.939h3.276v2.756h-3.276v6.695c0 .312.07367.572.221.78.156.1993.377.299.663.299.14733 0 .26867-.013.364-.039.104-.0347.19067-.0693.26-.104.078-.0433.14733-.078.208-.104.06933-.0347.14733-.052.234-.052.12133 0 .21667.0303.286.091.078.052.156.1387.234.26l1.222 1.911c-.52.39-1.105.6847-1.755.884-.65.1907-1.32167.286-2.015.286zm11.7102-13.897c.8926 0 1.7073.13867 2.444.416.7453.27733 1.3823.68033 1.911 1.209.5373.52867.9533 1.17867 1.248 1.95.3033.7627.455 1.6293.455 2.6 0 .3033-.013.5503-.039.741s-.0737.3423-.143.455c-.0694.1127-.1647.1907-.286.234-.1127.0433-.26.065-.442.065h-7.774c.13 1.1267.4723 1.9457 1.027 2.457.5546.5027 1.2696.754 2.145.754.468 0 .871-.0563 1.209-.169s.637-.2383.897-.377c.2686-.1387.5113-.2643.728-.377.2253-.1127.4593-.169.702-.169.3206 0 .5633.117.728.351l1.17 1.443c-.416.4767-.8667.8667-1.352 1.17-.4767.2947-.9707.5287-1.482.702-.5027.1647-1.0097.2773-1.521.338-.5027.0693-.9837.104-1.443.104-.9447 0-1.833-.1517-2.665-.455-.8234-.312-1.547-.7713-2.171-1.378-.6154-.6067-1.105-1.3607-1.469-2.262-.3554-.9013-.533-1.95-.533-3.146 0-.9013.1516-1.755.455-2.561.312-.806.754-1.51233 1.326-2.119.5806-.60667 1.2783-1.08767 2.093-1.443.8233-.35533 1.7506-.533 2.782-.533zm.078 2.782c-.7714 0-1.3737.221-1.807.663-.4334.4333-.7194 1.0617-.858 1.885h5.031c0-.3207-.0434-.6327-.13-.936-.078-.3033-.2124-.572-.403-.806-.182-.24267-.4247-.43767-.728-.585-.3034-.14733-.6717-.221-1.105-.221zm17.8605 10.907c-.3813 0-.6716-.052-.871-.156-.1906-.104-.351-.3207-.481-.65l-.286-.741c-.338.286-.663.5373-.975.754s-.637.403-.975.559c-.3293.1473-.6846.2557-1.066.325-.3726.078-.7886.117-1.248.117-.6153 0-1.1743-.078-1.677-.234-.5026-.1647-.9316-.403-1.287-.715-.3466-.312-.6153-.6977-.806-1.157-.1906-.468-.286-1.0053-.286-1.612 0-.4767.1214-.9663.364-1.469.2427-.5027.663-.9577 1.261-1.365.598-.416 1.404-.7627 2.418-1.04s2.2924-.4333 3.835-.468v-.572c0-.7887-.1646-1.3563-.494-1.703-.3206-.35533-.78-.533-1.378-.533-.4766 0-.8666.052-1.17.156-.3033.104-.5763.221-.819.351-.234.13-.4636.247-.689.351-.2253.104-.494.156-.806.156-.2773 0-.5156-.065-.715-.195-.1906-.1387-.3423-.30767-.455-.507l-.728-1.261c.8147-.71933 1.716-1.25233 2.704-1.599.9967-.35533 2.0627-.533 3.198-.533.8147 0 1.547.13433 2.197.403.6587.26 1.2134.62833 1.664 1.105.4594.468.8104 1.027 1.053 1.677.2427.65.364 1.3607.364 2.132v8.424zm-4.628-2.457c.52 0 .975-.091 1.365-.273s.7844-.4767 1.183-.884v-1.872c-.806.0347-1.469.104-1.989.208s-.9316.234-1.235.39c-.3033.156-.5156.3337-.637.533-.1126.1993-.169.416-.169.65 0 .4593.1257.7843.377.975.2514.182.6197.273 1.105.273zm9.5957 2.457v-13.481h2.496c.2513 0 .4593.05633.624.169.1733.11267.2946.28167.364.507l.221.728c.2253-.234.4593-.44633.702-.637.2426-.19933.5026-.36833.78-.507.286-.14733.5893-.26.91-.338.3293-.08667.689-.13 1.079-.13.8146 0 1.4863.21233 2.015.637.5373.416.9446.975 1.222 1.677.2253-.416.4983-.77133.819-1.066.3293-.29467.6803-.533 1.053-.715.3813-.182.78-.31633 1.196-.403.4246-.08667.845-.13 1.261-.13.7713 0 1.456.117 2.054.351.598.22533 1.0963.559 1.495 1.001.4073.43333.715.97067.923 1.612.208.63267.312 1.352.312 2.158v8.567h-4.03v-8.567c0-1.3953-.598-2.093-1.794-2.093-.546 0-1.001.182-1.365.546-.3554.3553-.533.871-.533 1.547v8.567h-4.03v-8.567c0-.7713-.1517-1.313-.455-1.625-.3034-.312-.7497-.468-1.339-.468-.364 0-.7107.08233-1.04.247-.3207.16467-.624.38567-.91.663v9.75zm27.9418 4.277v-17.758h2.496c.2514 0 .4594.05633.624.169.1734.11267.2947.28167.364.507l.299.988c.26-.286.5374-.546.832-.78.3034-.234.624-.43333.962-.598.3467-.17333.715-.30767 1.105-.403.3987-.09533.832-.143 1.3-.143.702 0 1.352.156 1.95.468s1.1137.76267 1.547 1.352c.4334.58933.7714 1.313 1.014 2.171.2514.8493.377 1.8157.377 2.899 0 1.014-.143 1.95-.429 2.808-.2773.858-.6716 1.6033-1.183 2.236-.5026.6327-1.1093 1.1267-1.82 1.482-.702.3553-1.482.533-2.34.533-.702 0-1.2913-.0997-1.768-.299-.4766-.1993-.91-.468-1.3-.806v5.174zm6.578-14.937c-.2946 0-.5633.03033-.806.091-.234.052-.455.13-.663.234-.1993.104-.3856.23833-.559.403-.1733.156-.3466.338-.52.546v5.72c.3034.338.6327.5763.988.715.3554.13.728.195 1.118.195.3727 0 .715-.0737 1.027-.221s.5807-.3813.806-.702c.234-.3293.416-.754.546-1.274s.195-1.1527.195-1.898c0-.7107-.052-1.3087-.156-1.794s-.2513-.8753-.442-1.17c-.182-.30333-.403-.52-.663-.65s-.5503-.195-.871-.195zm12.8733-8.801001v19.461001h-4.03v-19.461001zm12.8225 19.461001c-.382 0-.672-.052-.871-.156-.191-.104-.3515-.3207-.4815-.65l-.286-.741c-.338.286-.663.5373-.975.754s-.637.403-.975.559c-.3293.1473-.6846.2557-1.066.325-.3726.078-.7886.117-1.248.117-.6153 0-1.1743-.078-1.677-.234-.5026-.1647-.9316-.403-1.287-.715-.3466-.312-.6153-.6977-.806-1.157-.1906-.468-.286-1.0053-.286-1.612 0-.4767.1214-.9663.364-1.469.2427-.5027.663-.9577 1.261-1.365.598-.416 1.404-.7627 2.418-1.04s2.2924-.4333 3.835-.468v-.572c0-.7887-.1646-1.3563-.494-1.703-.3206-.35533-.78-.533-1.378-.533-.4766 0-.8666.052-1.17.156-.3033.104-.5763.221-.819.351-.234.13-.4636.247-.689.351-.2253.104-.494.156-.806.156-.2773 0-.5156-.065-.715-.195-.1906-.1387-.3423-.30767-.455-.507l-.728-1.261c.8147-.71933 1.716-1.25233 2.704-1.599.9967-.35533 2.0627-.533 3.198-.533.8147 0 1.547.13433 2.197.403.6585.26 1.2135.62833 1.6645 1.105.459.468.81 1.027 1.053 1.677.242.65.364 1.3607.364 2.132v8.424zm-4.6285-2.457c.52 0 .975-.091 1.365-.273s.7844-.4767 1.183-.884v-1.872c-.806.0347-1.469.104-1.989.208s-.9316.234-1.235.39c-.3033.156-.5156.3337-.637.533-.1126.1993-.169.416-.169.65 0 .4593.1257.7843.377.975.2514.182.6197.273 1.105.273zm14.5995 5.954c-.121.2687-.268.4637-.442.585-.173.13-.45.195-.832.195h-3.016l2.6-5.46-5.382-12.298h3.562c.312 0 .555.06933.728.208.174.13867.295.30333.364.494l2.21 5.811c.208.5373.377 1.0747.507 1.612.087-.2773.182-.5503.286-.819s.204-.5417.299-.819l2.002-5.785c.07-.19933.204-.364.403-.494.208-.13867.429-.208.663-.208h3.25zm14.384-17.186c.892 0 1.707.13867 2.444.416.745.27733 1.382.68033 1.911 1.209.537.52867.953 1.17867 1.248 1.95.303.7627.455 1.6293.455 2.6 0 .3033-.013.5503-.039.741s-.074.3423-.143.455c-.07.1127-.165.1907-.286.234-.113.0433-.26.065-.442.065h-7.774c.13 1.1267.472 1.9457 1.027 2.457.554.5027 1.269.754 2.145.754.468 0 .871-.0563 1.209-.169s.637-.2383.897-.377c.268-.1387.511-.2643.728-.377.225-.1127.459-.169.702-.169.32 0 .563.117.728.351l1.17 1.443c-.416.4767-.867.8667-1.352 1.17-.477.2947-.971.5287-1.482.702-.503.1647-1.01.2773-1.521.338-.503.0693-.984.104-1.443.104-.945 0-1.833-.1517-2.665-.455-.824-.312-1.547-.7713-2.171-1.378-.616-.6067-1.105-1.3607-1.469-2.262-.356-.9013-.533-1.95-.533-3.146 0-.9013.151-1.755.455-2.561.312-.806.754-1.51233 1.326-2.119.58-.60667 1.278-1.08767 2.093-1.443.823-.35533 1.75-.533 2.782-.533zm.078 2.782c-.772 0-1.374.221-1.807.663-.434.4333-.72 1.0617-.858 1.885h5.031c0-.3207-.044-.6327-.13-.936-.078-.3033-.213-.572-.403-.806-.182-.24267-.425-.43767-.728-.585-.304-.14733-.672-.221-1.105-.221zm8.552 10.907v-13.481h2.392c.2 0 .364.01733.494.052.139.03467.252.091.338.169.096.06933.165.16467.208.286.052.12133.096.26867.13.442l.221 1.261c.494-.76267 1.049-1.365 1.664-1.807.616-.442 1.287-.663 2.015-.663.616 0 1.11.14733 1.482.442l-.52 2.964c-.034.182-.104.312-.208.39-.104.0693-.242.104-.416.104-.147 0-.32-.0173-.52-.052-.199-.0433-.45-.065-.754-.065-1.057 0-1.889.5633-2.496 1.69v8.268z" fill="#121111"/></svg>

<svg width="144" height="25" viewBox="0 0 144 25" fill="none" xmlns="http://www.w3.org/2000/svg">
<path d="M6.292 20.208C5.65067 20.208 5.083 20.117 4.589 19.935C4.10367 19.7443 3.692 19.48 3.354 19.142C3.02467 18.7953 2.77333 18.3793 2.6 17.894C2.42667 17.4087 2.34 16.867 2.34 16.269V9.301H1.196C0.988 9.301 0.810333 9.236 0.663 9.106C0.515667 8.96733 0.442 8.768 0.442 8.508V6.935L2.587 6.519L3.38 3.23C3.484 2.814 3.77867 2.606 4.264 2.606H6.37V6.545H9.646V9.301H6.37V15.996C6.37 16.308 6.44367 16.568 6.591 16.776C6.747 16.9753 6.968 17.075 7.254 17.075C7.40133 17.075 7.52267 17.062 7.618 17.036C7.722 17.0013 7.80867 16.9667 7.878 16.932C7.956 16.8887 8.02533 16.854 8.086 16.828C8.15533 16.7933 8.23333 16.776 8.32 16.776C8.44133 16.776 8.53667 16.8063 8.606 16.867C8.684 16.919 8.762 17.0057 8.84 17.127L10.062 19.038C9.542 19.428 8.957 19.7227 8.307 19.922C7.657 20.1127 6.98533 20.208 6.292 20.208ZM18.0022 6.311C18.8948 6.311 19.7095 6.44967 20.4462 6.727C21.1915 7.00433 21.8285 7.40733 22.3572 7.936C22.8945 8.46467 23.3105 9.11467 23.6052 9.886C23.9085 10.6487 24.0602 11.5153 24.0602 12.486C24.0602 12.7893 24.0472 13.0363 24.0212 13.227C23.9952 13.4177 23.9475 13.5693 23.8782 13.682C23.8088 13.7947 23.7135 13.8727 23.5922 13.916C23.4795 13.9593 23.3322 13.981 23.1502 13.981H15.3762C15.5062 15.1077 15.8485 15.9267 16.4032 16.438C16.9578 16.9407 17.6728 17.192 18.5482 17.192C19.0162 17.192 19.4192 17.1357 19.7572 17.023C20.0952 16.9103 20.3942 16.7847 20.6542 16.646C20.9228 16.5073 21.1655 16.3817 21.3822 16.269C21.6075 16.1563 21.8415 16.1 22.0842 16.1C22.4048 16.1 22.6475 16.217 22.8122 16.451L23.9822 17.894C23.5662 18.3707 23.1155 18.7607 22.6302 19.064C22.1535 19.3587 21.6595 19.5927 21.1482 19.766C20.6455 19.9307 20.1385 20.0433 19.6272 20.104C19.1245 20.1733 18.6435 20.208 18.1842 20.208C17.2395 20.208 16.3512 20.0563 15.5192 19.753C14.6958 19.441 13.9722 18.9817 13.3482 18.375C12.7328 17.7683 12.2432 17.0143 11.8792 16.113C11.5238 15.2117 11.3462 14.163 11.3462 12.967C11.3462 12.0657 11.4978 11.212 11.8012 10.406C12.1132 9.6 12.5552 8.89367 13.1272 8.287C13.7078 7.68033 14.4055 7.19933 15.2202 6.844C16.0435 6.48867 16.9708 6.311 18.0022 6.311ZM18.0802 9.093C17.3088 9.093 16.7065 9.314 16.2732 9.756C15.8398 10.1893 15.5538 10.8177 15.4152 11.641H20.4462C20.4462 11.3203 20.4028 11.0083 20.3162 10.705C20.2382 10.4017 20.1038 10.133 19.9132 9.899C19.7312 9.65633 19.4885 9.46133 19.1852 9.314C18.8818 9.16667 18.5135 9.093 18.0802 9.093ZM35.9407 20C35.5594 20 35.2691 19.948 35.0697 19.844C34.8791 19.74 34.7187 19.5233 34.5887 19.194L34.3027 18.453C33.9647 18.739 33.6397 18.9903 33.3277 19.207C33.0157 19.4237 32.6907 19.61 32.3527 19.766C32.0234 19.9133 31.6681 20.0217 31.2867 20.091C30.9141 20.169 30.4981 20.208 30.0387 20.208C29.4234 20.208 28.8644 20.13 28.3617 19.974C27.8591 19.8093 27.4301 19.571 27.0747 19.259C26.7281 18.947 26.4594 18.5613 26.2687 18.102C26.0781 17.634 25.9827 17.0967 25.9827 16.49C25.9827 16.0133 26.1041 15.5237 26.3467 15.021C26.5894 14.5183 27.0097 14.0633 27.6077 13.656C28.2057 13.24 29.0117 12.8933 30.0257 12.616C31.0397 12.3387 32.3181 12.1827 33.8607 12.148V11.576C33.8607 10.7873 33.6961 10.2197 33.3667 9.873C33.0461 9.51767 32.5867 9.34 31.9887 9.34C31.5121 9.34 31.1221 9.392 30.8187 9.496C30.5154 9.6 30.2424 9.717 29.9997 9.847C29.7657 9.977 29.5361 10.094 29.3107 10.198C29.0854 10.302 28.8167 10.354 28.5047 10.354C28.2274 10.354 27.9891 10.289 27.7897 10.159C27.5991 10.0203 27.4474 9.85133 27.3347 9.652L26.6067 8.391C27.4214 7.67167 28.3227 7.13867 29.3107 6.792C30.3074 6.43667 31.3734 6.259 32.5087 6.259C33.3234 6.259 34.0557 6.39333 34.7057 6.662C35.3644 6.922 35.9191 7.29033 36.3697 7.767C36.8291 8.235 37.1801 8.794 37.4227 9.444C37.6654 10.094 37.7867 10.8047 37.7867 11.576V20H35.9407ZM31.3127 17.543C31.8327 17.543 32.2877 17.452 32.6777 17.27C33.0677 17.088 33.4621 16.7933 33.8607 16.386V14.514C33.0547 14.5487 32.3917 14.618 31.8717 14.722C31.3517 14.826 30.9401 14.956 30.6367 15.112C30.3334 15.268 30.1211 15.4457 29.9997 15.645C29.8871 15.8443 29.8307 16.061 29.8307 16.295C29.8307 16.7543 29.9564 17.0793 30.2077 17.27C30.4591 17.452 30.8274 17.543 31.3127 17.543ZM40.9084 20V6.519H43.4044C43.6557 6.519 43.8637 6.57533 44.0284 6.688C44.2017 6.80067 44.323 6.96967 44.3924 7.195L44.6134 7.923C44.8387 7.689 45.0727 7.47667 45.3154 7.286C45.558 7.08667 45.818 6.91767 46.0954 6.779C46.3814 6.63167 46.6847 6.519 47.0054 6.441C47.3347 6.35433 47.6944 6.311 48.0844 6.311C48.899 6.311 49.5707 6.52333 50.0994 6.948C50.6367 7.364 51.044 7.923 51.3214 8.625C51.5467 8.209 51.8197 7.85367 52.1404 7.559C52.4697 7.26433 52.8207 7.026 53.1934 6.844C53.5747 6.662 53.9734 6.52767 54.3894 6.441C54.814 6.35433 55.2344 6.311 55.6504 6.311C56.4217 6.311 57.1064 6.428 57.7044 6.662C58.3024 6.88733 58.8007 7.221 59.1994 7.663C59.6067 8.09633 59.9144 8.63367 60.1224 9.275C60.3304 9.90767 60.4344 10.627 60.4344 11.433V20H56.4044V11.433C56.4044 10.0377 55.8064 9.34 54.6104 9.34C54.0644 9.34 53.6094 9.522 53.2454 9.886C52.89 10.2413 52.7124 10.757 52.7124 11.433V20H48.6824V11.433C48.6824 10.6617 48.5307 10.12 48.2274 9.808C47.924 9.496 47.4777 9.34 46.8884 9.34C46.5244 9.34 46.1777 9.42233 45.8484 9.587C45.5277 9.75167 45.2244 9.97267 44.9384 10.25V20H40.9084ZM68.8502 24.277V6.519H71.3462C71.5976 6.519 71.8056 6.57533 71.9702 6.688C72.1436 6.80067 72.2649 6.96967 72.3342 7.195L72.6332 8.183C72.8932 7.897 73.1706 7.637 73.4652 7.403C73.7686 7.169 74.0892 6.96967 74.4272 6.805C74.7739 6.63167 75.1422 6.49733 75.5322 6.402C75.9309 6.30667 76.3642 6.259 76.8322 6.259C77.5342 6.259 78.1842 6.415 78.7822 6.727C79.3802 7.039 79.8959 7.48967 80.3292 8.079C80.7626 8.66833 81.1006 9.392 81.3432 10.25C81.5946 11.0993 81.7202 12.0657 81.7202 13.149C81.7202 14.163 81.5772 15.099 81.2912 15.957C81.0139 16.815 80.6196 17.5603 80.1082 18.193C79.6056 18.8257 78.9989 19.3197 78.2882 19.675C77.5862 20.0303 76.8062 20.208 75.9482 20.208C75.2462 20.208 74.6569 20.1083 74.1802 19.909C73.7036 19.7097 73.2702 19.441 72.8802 19.103V24.277H68.8502ZM75.4282 9.34C75.1336 9.34 74.8649 9.37033 74.6222 9.431C74.3882 9.483 74.1672 9.561 73.9592 9.665C73.7599 9.769 73.5736 9.90333 73.4002 10.068C73.2269 10.224 73.0536 10.406 72.8802 10.614V16.334C73.1836 16.672 73.5129 16.9103 73.8682 17.049C74.2236 17.179 74.5962 17.244 74.9862 17.244C75.3589 17.244 75.7012 17.1703 76.0132 17.023C76.3252 16.8757 76.5939 16.6417 76.8192 16.321C77.0532 15.9917 77.2352 15.567 77.3652 15.047C77.4952 14.527 77.5602 13.8943 77.5602 13.149C77.5602 12.4383 77.5082 11.8403 77.4042 11.355C77.3002 10.8697 77.1529 10.4797 76.9622 10.185C76.7802 9.88167 76.5592 9.665 76.2992 9.535C76.0392 9.405 75.7489 9.34 75.4282 9.34ZM88.3015 0.538999V20H84.2715V0.538999H88.3015ZM101.124 20C100.742 20 100.452 19.948 100.253 19.844C100.062 19.74 99.9015 19.5233 99.7715 19.194L99.4855 18.453C99.1475 18.739 98.8225 18.9903 98.5105 19.207C98.1985 19.4237 97.8735 19.61 97.5355 19.766C97.2062 19.9133 96.8509 20.0217 96.4695 20.091C96.0969 20.169 95.6809 20.208 95.2215 20.208C94.6062 20.208 94.0472 20.13 93.5445 19.974C93.0419 19.8093 92.6129 19.571 92.2575 19.259C91.9109 18.947 91.6422 18.5613 91.4515 18.102C91.2609 17.634 91.1655 17.0967 91.1655 16.49C91.1655 16.0133 91.2869 15.5237 91.5295 15.021C91.7722 14.5183 92.1925 14.0633 92.7905 13.656C93.3885 13.24 94.1945 12.8933 95.2085 12.616C96.2225 12.3387 97.5009 12.1827 99.0435 12.148V11.576C99.0435 10.7873 98.8789 10.2197 98.5495 9.873C98.2289 9.51767 97.7695 9.34 97.1715 9.34C96.6949 9.34 96.3049 9.392 96.0015 9.496C95.6982 9.6 95.4252 9.717 95.1825 9.847C94.9485 9.977 94.7189 10.094 94.4935 10.198C94.2682 10.302 93.9995 10.354 93.6875 10.354C93.4102 10.354 93.1719 10.289 92.9725 10.159C92.7819 10.0203 92.6302 9.85133 92.5175 9.652L91.7895 8.391C92.6042 7.67167 93.5055 7.13867 94.4935 6.792C95.4902 6.43667 96.5562 6.259 97.6915 6.259C98.5062 6.259 99.2385 6.39333 99.8885 6.662C100.547 6.922 101.102 7.29033 101.553 7.767C102.012 8.235 102.363 8.794 102.606 9.444C102.848 10.094 102.97 10.8047 102.97 11.576V20H101.124ZM96.4955 17.543C97.0155 17.543 97.4705 17.452 97.8605 17.27C98.2505 17.088 98.6449 16.7933 99.0435 16.386V14.514C98.2375 14.5487 97.5745 14.618 97.0545 14.722C96.5345 14.826 96.1229 14.956 95.8195 15.112C95.5162 15.268 95.3039 15.4457 95.1825 15.645C95.0699 15.8443 95.0135 16.061 95.0135 16.295C95.0135 16.7543 95.1392 17.0793 95.3905 17.27C95.6419 17.452 96.0102 17.543 96.4955 17.543ZM111.095 23.497C110.974 23.7657 110.827 23.9607 110.653 24.082C110.48 24.212 110.203 24.277 109.821 24.277H106.805L109.405 18.817L104.023 6.519H107.585C107.897 6.519 108.14 6.58833 108.313 6.727C108.487 6.86567 108.608 7.03033 108.677 7.221L110.887 13.032C111.095 13.5693 111.264 14.1067 111.394 14.644C111.481 14.3667 111.576 14.0937 111.68 13.825C111.784 13.5563 111.884 13.2833 111.979 13.006L113.981 7.221C114.051 7.02167 114.185 6.857 114.384 6.727C114.592 6.58833 114.813 6.519 115.047 6.519H118.297L111.095 23.497ZM125.479 6.311C126.371 6.311 127.186 6.44967 127.923 6.727C128.668 7.00433 129.305 7.40733 129.834 7.936C130.371 8.46467 130.787 9.11467 131.082 9.886C131.385 10.6487 131.537 11.5153 131.537 12.486C131.537 12.7893 131.524 13.0363 131.498 13.227C131.472 13.4177 131.424 13.5693 131.355 13.682C131.285 13.7947 131.19 13.8727 131.069 13.916C130.956 13.9593 130.809 13.981 130.627 13.981H122.853C122.983 15.1077 123.325 15.9267 123.88 16.438C124.434 16.9407 125.149 17.192 126.025 17.192C126.493 17.192 126.896 17.1357 127.234 17.023C127.572 16.9103 127.871 16.7847 128.131 16.646C128.399 16.5073 128.642 16.3817 128.859 16.269C129.084 16.1563 129.318 16.1 129.561 16.1C129.881 16.1 130.124 16.217 130.289 16.451L131.459 17.894C131.043 18.3707 130.592 18.7607 130.107 19.064C129.63 19.3587 129.136 19.5927 128.625 19.766C128.122 19.9307 127.615 20.0433 127.104 20.104C126.601 20.1733 126.12 20.208 125.661 20.208C124.716 20.208 123.828 20.0563 122.996 19.753C122.172 19.441 121.449 18.9817 120.825 18.375C120.209 17.7683 119.72 17.0143 119.356 16.113C119 15.2117 118.823 14.163 118.823 12.967C118.823 12.0657 118.974 11.212 119.278 10.406C119.59 9.6 120.032 8.89367 120.604 8.287C121.184 7.68033 121.882 7.19933 122.697 6.844C123.52 6.48867 124.447 6.311 125.479 6.311ZM125.557 9.093C124.785 9.093 124.183 9.314 123.75 9.756C123.316 10.1893 123.03 10.8177 122.892 11.641H127.923C127.923 11.3203 127.879 11.0083 127.793 10.705C127.715 10.4017 127.58 10.133 127.39 9.899C127.208 9.65633 126.965 9.46133 126.662 9.314C126.358 9.16667 125.99 9.093 125.557 9.093ZM134.109 20V6.519H136.501C136.701 6.519 136.865 6.53633 136.995 6.571C137.134 6.60567 137.247 6.662 137.333 6.74C137.429 6.80933 137.498 6.90467 137.541 7.026C137.593 7.14733 137.637 7.29467 137.671 7.468L137.892 8.729C138.386 7.96633 138.941 7.364 139.556 6.922C140.172 6.48 140.843 6.259 141.571 6.259C142.187 6.259 142.681 6.40633 143.053 6.701L142.533 9.665C142.499 9.847 142.429 9.977 142.325 10.055C142.221 10.1243 142.083 10.159 141.909 10.159C141.762 10.159 141.589 10.1417 141.389 10.107C141.19 10.0637 140.939 10.042 140.635 10.042C139.578 10.042 138.746 10.6053 138.139 11.732V20H134.109Z" fill="#121111"/>
</svg>
